packages/Snapp/src/EditIcon/index.svg

<?xml version="1.0" encoding="UTF-8"?>
<svg width="24px" height="24px" viewBox="0 0 24 24" version="1.1" xmlns="http://www.w3.org/2000/svg" xmlns:xlink="http://www.w3.org/1999/xlink">
    <title>Icons/24/Edit</title>
    <g id="Icons/24/Edit" stroke="none" stroke-width="1" fill="none" fill-rule="evenodd">
        <rect id="Container" fill-opacity="0" fill="#D8D8D8" fill-rule="nonzero" x="0" y="0" width="24" height="24"></rect>
        <path d="M12,3 C12.5522847,3 13,3.44771525 13,4 C13,4.55228475 12.5522847,5 12,5 L6,5 C5.55291235,5 5,5.55291235 5,6 L5,18.1904762 C5,18.6375638 5.36243615,19 5.80952381,19 L18,19 C18.4470877,19 19,18.4470877 19,18 L19,12 C19,11.4477153 19.4477153,11 20,11 C20.5522847,11 21,11.4477153 21,12 L21,18 C21,19.5516572 19.5516572,21 18,21 L5.80952381,21 C4.25786666,21 3,19.7421333 3,18.1904762 L3,6 C3,4.44834285 4.44834285,3 6,3 L12,3 Z M11.5363695,13.7637026 L19.9357503,5.36432181 C20.2947553,5.00531679 20.2947553,4.42325467 19.9357503,4.06424967 C19.5767453,3.70524466 18.9946832,3.70524465 18.6356782,4.06424965 L10.2362974,12.4636305 L9.80293997,14.19706 L11.5363695,13.7637026 Z M21.3499639,2.6500361 C22.4900175,3.79008968 22.4900175,5.63848174 21.3499639,6.77853535 L12.7547258,15.3737734 C12.626567,15.5019323 12.4659871,15.5928511 12.2901547,15.6368092 L8.67110705,16.5415711 C7.93872659,16.7246662 7.27533381,16.0612734 7.45842893,15.3288929 L8.36319083,11.7098453 C8.40714895,11.5340129 8.49806773,11.373433 8.62622655,11.2452742 L17.2214646,2.65003608 C18.3615183,1.50998251 20.2099103,1.50998253 21.3499639,2.6500361 Z" id="Shape" fill="#404040" fill-rule="nonzero"></path>
    </g>
</svg>

<svg viewBox="0 0 24 24" xmlns="http://www.w3.org/2000/svg" fill="currentColor" focusable="false">
  <path d="M12 3a1 1 0 010 2H6c-.447 0-1 .553-1 1v12.19c0 .448.362.81.81.81H18c.447 0 1-.553 1-1v-6a1 1 0 012 0v6c0 1.552-1.448 3-3 3H5.81A2.81 2.81 0 013 18.19V6c0-1.552 1.448-3 3-3h6zm-.464 10.764l8.4-8.4a.92.92 0 00-1.3-1.3l-8.4 8.4-.433 1.733 1.733-.433zM21.35 2.65a2.92 2.92 0 010 4.129l-8.595 8.595a1 1 0 01-.465.263l-3.619.905a1 1 0 01-1.213-1.213l.905-3.62a1 1 0 01.263-.464l8.595-8.595a2.92 2.92 0 014.129 0z" fill="none"/>
</svg>
